public/icons/ico-eye-close.svg

<?xml version="1.0" encoding="UTF-8"?>
<svg width="28px" height="27px" viewBox="0 0 28 27" version="1.1" xmlns="http://www.w3.org/2000/svg" xmlns:xlink="http://www.w3.org/1999/xlink">
    <defs>
        <path d="M21.4843757,12.9967995 L14.845335,24.4959553 C10.8236852,23.7359749 7.41465176,21.615137 5.31818182,18.7419713 C7.96745532,15.1108259 12.7127547,12.6818182 18.1416084,12.6818182 C19.2909708,12.6818182 20.4096945,12.7906928 21.4843757,12.9967995 Z M24.710239,13.954895 C27.2956923,15.0174802 29.4659293,16.6872681 30.965035,18.7419713 C28.3659004,22.3040277 23.7493262,24.7097394 18.4490965,24.7995224 L24.710239,13.954895 Z" id="path-1"></path>
    </defs>
    <g id="Portail-pro" stroke="none" stroke-width="1" fill="none" fill-rule="evenodd">
        <g id="Passculture-Pro-A-signup" transform="translate(-1011.000000, -503.000000)">
            <g id="Group-5" transform="translate(737.000000, 100.000000)">
                <g id="Stacked-Group">
                    <g id="Group-3-Copy-2" transform="translate(0.000000, 362.000000)">
                        <g id="ICONS/ico-eye-close" transform="translate(270.000000, 36.000000)">
                            <rect id="Background" x="0" y="0" width="36" height="36"></rect>
                            <rect id="crop" x="0" y="0" width="36" height="36"></rect>
                            <mask id="mask-2" fill="white">
                                <use xlink:href="#path-1"></use>
                            </mask>
                            <use id="Combined-Shape" stroke="#E60039" stroke-width="2" stroke-linecap="round" stroke-linejoin="round" xlink:href="#path-1"></use>
                            <path d="M18,23.7272727 C14.8369146,23.7272727 12.2727273,21.1630854 12.2727273,18 C12.2727273,14.8369146 14.8369146,12.2727273 18,12.2727273 C21.1630854,12.2727273 23.7272727,14.8369146 23.7272727,18 C23.7272727,21.1630854 21.1630854,23.7272727 18,23.7272727 Z M17.9514203,22.0423294 C20.210767,22.0423294 22.0423294,20.210767 22.0423294,17.9514203 C22.0423294,15.6920736 20.210767,13.8605112 17.9514203,13.8605112 C15.6920736,13.8605112 13.8605112,15.6920736 13.8605112,17.9514203 C13.8605112,20.210767 15.6920736,22.0423294 17.9514203,22.0423294 Z M17.9514203,21.2241476 C16.143943,21.2241476 14.678693,19.7588977 14.678693,17.9514203 C14.678693,16.143943 16.143943,14.678693 17.9514203,14.678693 C19.7588977,14.678693 21.2241476,16.143943 21.2241476,17.9514203 C21.2241476,19.7588977 19.7588977,21.2241476 17.9514203,21.2241476 Z" id="Combined-Shape" stroke="#E60039" stroke-width="2" stroke-linecap="round" stroke-linejoin="round" mask="url(#mask-2)"></path>
                            <path d="M28.6363636,8.18181818 L8.31574685,28.502435" id="Line-3" stroke="#E60039" stroke-width="2" stroke-linecap="round" stroke-linejoin="round" transform="translate(18.818182, 18.409091) rotate(-15.000000) translate(-18.818182, -18.409091) "></path>
                        </g>
                    </g>
                </g>
            </g>
        </g>
    </g>
</svg>

<svg width="28" height="27" viewBox="0 0 28 27" xmlns="http://www.w3.org/2000/svg" xmlns:xlink="http://www.w3.org/1999/xlink"><defs><path d="M21.484 12.997l-6.639 11.499c-4.021-.76-7.43-2.88-9.527-5.754 2.65-3.631 7.395-6.06 12.824-6.06 1.149 0 2.268.109 3.342.315zm3.226.958c2.586 1.062 4.756 2.732 6.255 4.787-2.6 3.562-7.216 5.968-12.516 6.058l6.261-10.845z" id="a"/></defs><g transform="translate(-4 -5)" fill="none" fill-rule="evenodd"><path d="M0 0h36v36H0z"/><path d="M0 0h36v36H0z"/><mask id="b" fill="#fff"><use xlink:href="#a"/></mask><use stroke="#E60039" stroke-width="2" stroke-linecap="round" stroke-linejoin="round" xlink:href="#a"/><path d="M18 23.727a5.727 5.727 0 110-11.454 5.727 5.727 0 010 11.454zm-.049-1.685a4.09 4.09 0 100-8.181 4.09 4.09 0 000 8.181zm0-.818a3.273 3.273 0 110-6.545 3.273 3.273 0 010 6.545z" stroke="#E60039" stroke-width="2" stroke-linecap="round" stroke-linejoin="round" mask="url(#b)"/><path d="M25.655 5.99L11.286 30.876" stroke="#E60039" stroke-width="2" stroke-linecap="round" stroke-linejoin="round"/></g></svg>
